X: 69
T: Zhong nangua
L: 1/8
M: 2/4
K: G
d d/ e/ d A [I:setbarnb 1]| 
d ed2 | 
Bd2e | 
d BA2 | 
EG2A | 
d ed2 | 
d2E G | 
A B F E | 
D4 | 
B A B d | 
A GD2 | 
G> G E G | 
A GA2 | 
EG2A | 
d ed2 | 
d2E G | 
A B F E | 
D4 |]

@@@ Tune index: 8943
